storage/app/icons/phosphoricons/fill/towel-fill.svg

<svg xmlns="http://www.w3.org/2000/svg" fill="currentColor" viewBox="0 0 256 256"><path d="M224 48v104a8 8 0 0 1-8.53 8 8.17 8.17 0 0 1-7.47-8.25V48a8 8 0 0 0-8.55-8 8.19 8.19 0 0 0-7.45 8.28V180a4 4 0 0 1-4 4H52a4 4 0 0 1-4-4V48a24 24 0 0 1 24-24h128a24 24 0 0 1 24 24m-36 152H52a4 4 0 0 0-4 4v12a16 16 0 0 0 16 16h112a16 16 0 0 0 16-16v-12a4 4 0 0 0-4-4"/></svg>

<svg xmlns="http://www.w3.org/2000/svg" viewBox="0 0 256 256" fill="currentColor"><path d="M224,48V152a8,8,0,0,1-8.53,8,8.17,8.17,0,0,1-7.47-8.25V48a8,8,0,0,0-8.55-8A8.19,8.19,0,0,0,192,48.28V180a4,4,0,0,1-4,4H52a4,4,0,0,1-4-4V48A24,24,0,0,1,72,24H200A24,24,0,0,1,224,48ZM188,200H52a4,4,0,0,0-4,4v12a16,16,0,0,0,16,16H176a16,16,0,0,0,16-16V204A4,4,0,0,0,188,200Z"/></svg>
